X:1
T:As pants the hart for cooling streams
T:Ozias Thurston Linley
T:p37, A Collection of Sacred Music, ed. J. M. Coombs (jr.), London, (1830)
T:This edition by Edmund Gooch released into the public domain, June 2014.
T:As pants the hart for cooling streams
T:Psalm 42
C:Ozias Thurston Linley
Z:p37, A Collection of
Z:Sacred Music, ed.
Z:J. M. Coombs (jr.),
Z:London, (1830)
%%score [ 1 2 3 4 ]
L:1/8
M:4/4
K:Emin
V:1 treble nm="Soprano" snm="S."
V:2 treble nm="Alto" snm="A."
V:3 treble-8 transpose=-12 nm="Tenor" snm="T."
V:4 bass nm="Bass" snm="B."
V:1
 (E3 F) | G4 A4 | B4 (B3 ^c) | d4 ^c4 | B4 (F3 G) | A4 (G3 A) | B4 A4 | G4 B4 | c6 c2 | c4 B4 | %10
w: But _|when thy|pre- sence, _|Lord of|life, Has _|once dis- *|pell’d this|storm, To|thee I’ll|mid- night|
w: As _|pants the|hart for _|cool- ing|streams When _|heat- ed _|in the|chase, So|longs my|soul, O|
w: One _|trou- ble|calls an- *|oth- er|on, And _|gath- ’ring _|o’er my|head, Fall|spout- ing|down, till|
 A4 G4 | F4 (F3 G) | A4 (E3 F) | G4 F4 | E4 |] %15
w: an- thems|sing, And _|all my _|vows per-|form.|
w: God, for|thee, And _|thy re- *|fresh- ing|grace.|
w: round my|soul A _|roar- ing _|sea is|spread.|
V:2
 B,4 | E4 (F2 E2) | ^D4 (=D3 E) | F4 E4 | D4 D4 | E4 ^C4 | D4 (D2 C2) | B,4 F4 | F6 F2 | %9
w: But|when thy _|pre- sence, _|Lord of|life, Has|once dis-|pell’d this _|storm, To|thee I’ll|
w: As|pants the _|hart for _|cool- ing|streams When|heat- ed|in the _|chase, So|longs my|
w: One|trou- ble _|calls an- *|oth- er|on, And|gath- ’ring|o’er my _|head, Fall|spout- ing|
 F4 (G2 E2) | (E2 ^D2) E4 | ^D4 =D4 | E4 E4 | E4 ^D4 | E4 |] %15
w: mid- night _|an- * thems|sing, And|all my|vows per-|form.|
w: soul, O _|God, _ for|thee, And|thy re-|fresh- ing|grace.|
w: down, till _|round _ my|soul A|roar- ing|sea is|spread.|
V:3
 (G3 A) | B4 c4 | F4 F4 | B4 ^A4 | B4 (A3 B) | (c2 B2) (A2 G2) | G4 F4 | G4 ^d4 | ^d6 d2 | %9
w: But _|when thy|pre- sence,|Lord of|life, Has _|once _ dis- *|pell’d this|storm, To|thee I’ll|
w: As _|pants the|hart for|cool- ing|streams When _|heat- * ed _|in the|chase, So|longs my|
w: One _|trou- ble|calls an-|oth- er|on, And _|gath- * ’ring _|o’er my|head, Fall|spout- ing|
 ^d4 (e2 B2) | B4 B4 | B4 (A3 B) | c4 A4 | B4 (B2 A2) | G4 |] %15
w: mid- night _|an- thems|sing, And _|all my|vows per- *|form.|
w: soul, O _|God, for|thee, And _|thy re-|fresh- ing _|grace.|
w: down, till _|round my|soul A _|roar- ing|sea is _|spread.|
V:4
 E,4 | E,4 C,4 | B,,4 B,,4 | F,4 F,4 | B,,4 D,4 | A,,4 E,4 | D,4 D,4 | %7
w: But|when thy|pre- sence,|Lord of|life, Has|once dis-|pell’d this|
w: As|pants the|hart for|cool- ing|streams When|heat- ed|in the|
w: One|trou- ble|calls an-|oth- er|on, And|gath- ’ring|o’er my|
"^Notes:The alto and tenor parts are printed in the alto and tenor clefs respectively in the source. Only the first verse of the text isgiven in the source: the other verses given here have been added editorially. The source contains a fully written-outkeyboard accompaniment, doubling the vocal parts throughout, which has been omitted from the present edition.This setting is attributed to ‘Revd. O. T. Linley’ in the source." G,,4 B,4 | %8
w: storm, To|
w: chase, So|
w: head, Fall|
 A,6 A,2 | A,4 G,4 | F,4 E,4 | B,,4 D,4 | A,,4 C,4 | B,,4 B,,4 | E,4 |] %15
w: thee I’ll|mid- night|an- thems|sing, And|all my|vows per-|form.|
w: longs my|soul, O|God, for|thee, And|thy re-|fresh- ing|grace.|
w: spout- ing|down, till|round my|soul A|roar- ing|sea is|spread.|

